assets/images/logo_inverted.svg

<svg width="165" height="64" viewBox="0 0 165 64" fill="none" xmlns="http://www.w3.org/2000/svg">
<path fill-rule="evenodd" clip-rule="evenodd" d="M85.6193 20.3048V24.5195C85.6193 27.0855 84.9972 29.0485 83.755 30.4095C82.512 31.7712 80.6775 32.4515 78.2517 32.4515C75.8256 32.4515 73.9907 31.7646 72.7484 30.3896C71.5051 29.0146 70.8838 27.0428 70.8838 24.4746V7.9769C70.8838 5.40864 71.5051 3.43758 72.7484 2.06226C73.9907 0.687664 75.8256 0 78.2517 0C80.6775 0 82.512 0.687664 83.755 2.06226C84.9972 3.43758 85.6193 5.40864 85.6193 7.9769V11.0585H80.947V7.65992C80.947 6.51148 80.7146 5.7032 80.2504 5.23507C79.7859 4.76658 79.165 4.5327 78.3861 4.5327C77.6073 4.5327 76.9856 4.76731 76.5222 5.23618C76.0573 5.70577 75.8256 6.51553 75.8256 7.6658V24.8313C75.8256 25.9816 76.0573 26.784 76.5222 27.2381C76.9856 27.6923 77.6073 27.9192 78.3861 27.9192C79.165 27.9192 79.7859 27.6923 80.2504 27.2392C80.7146 26.7862 80.947 25.9856 80.947 24.8375V20.3048H85.6193Z" fill="white"/>
<path fill-rule="evenodd" clip-rule="evenodd" d="M99.4105 22.8883L102.78 0.362671H109.653V32.089H104.981V9.3365L101.567 32.089H96.8944L93.2106 9.65386V32.089H88.8975V0.362671H95.7711L99.4105 22.8883Z" fill="white"/>
<path fill-rule="evenodd" clip-rule="evenodd" d="M118.681 22.0273H123.444L121.062 5.98301L118.681 22.0273ZM129.958 32.0889H124.971L124.118 26.3327H118.052L117.199 32.0889H112.661L117.693 0.362549H124.926L129.958 32.0889Z" fill="white"/>
<path fill-rule="evenodd" clip-rule="evenodd" d="M137.91 4.89464V15.6365H140.246C141.024 15.6365 141.623 15.4255 142.042 15.0018C142.461 14.5789 142.672 13.7938 142.672 12.645V7.88653C142.672 6.73809 142.461 5.95298 142.042 5.52971C141.623 5.10682 141.024 4.89464 140.246 4.89464H137.91ZM140.246 0.362671C142.731 0.362671 144.581 1.02754 145.794 2.3569C147.007 3.68663 147.614 5.63525 147.614 8.20351V12.3277C147.614 14.8967 147.007 16.8453 145.794 18.1746C144.581 19.5044 142.731 20.1689 140.246 20.1689H137.91V32.089H132.968V0.362671H140.246Z" fill="white"/>
<path fill-rule="evenodd" clip-rule="evenodd" d="M149.726 0.362793H165V4.89476H159.834V32.0887H154.892V4.89476H149.726V0.362793Z" fill="white"/>
<path fill-rule="evenodd" clip-rule="evenodd" d="M79.8083 42.2694C79.8083 41.2629 79.5968 40.5547 79.1741 40.1439C78.7504 39.7335 78.1845 39.5283 77.4751 39.5283C76.7653 39.5283 76.1987 39.7335 75.7764 40.1439C75.3523 40.5547 75.1415 41.2629 75.1415 42.2694V45.2488H70.8838V42.5474C70.8838 40.2969 71.45 38.5685 72.5828 37.3627C73.7153 36.158 75.3872 35.5553 77.5977 35.5553C79.8083 35.5553 81.4802 36.158 82.613 37.3627C83.7454 38.5685 84.3117 40.2969 84.3117 42.5474V57.0082C84.3117 59.2595 83.7454 60.9875 82.613 62.1929C81.4802 63.398 79.8083 64 77.5977 64C75.3872 64 73.7153 63.4039 72.5828 62.2109C71.45 61.0173 70.8838 59.297 70.8838 57.0479V53.3533H75.1415V57.3259C75.1415 58.3328 75.3523 59.0341 75.7764 59.4312C76.1987 59.8291 76.7653 60.0277 77.4751 60.0277C78.1845 60.0277 78.7504 59.828 79.1741 59.429C79.5968 59.03 79.8083 58.3247 79.8083 57.3131V51.5654H76.0827V47.5927H79.8083V42.2694Z" fill="white"/>
<path fill-rule="evenodd" clip-rule="evenodd" d="M91.9256 63.6824H87.4219V35.8728H91.9256V47.7911H97.043V35.8728H101.628V63.6824H97.043V51.7641H91.9256V63.6824Z" fill="white"/>
<path fill-rule="evenodd" clip-rule="evenodd" d="M110.553 47.5925H116.734V51.5655H110.553V59.7094H118.331V63.6824H106.049V35.8728H118.331V39.8458H110.553V47.5925Z" fill="white"/>
<path fill-rule="evenodd" clip-rule="evenodd" d="M126.027 39.8459V49.261H128.156C128.865 49.261 129.411 49.0761 129.794 48.705C130.175 48.3344 130.366 47.6459 130.366 46.6391V42.4679C130.366 41.4614 130.175 40.773 129.794 40.4023C129.411 40.0316 128.865 39.8459 128.156 39.8459H126.027ZM128.156 35.8729C130.421 35.8729 132.106 36.4558 133.212 37.6211C134.317 38.7869 134.87 40.4953 134.87 42.7463V46.3615C134.87 48.6127 134.317 50.3209 133.212 51.4858C132.106 52.6519 130.421 53.234 128.156 53.234H126.027V63.6825H121.523V35.8729H128.156Z" fill="white"/>
<path fill-rule="evenodd" clip-rule="evenodd" d="M141.87 63.6824H137.366V35.8728H149.28V39.8458H141.87V63.6824Z" fill="white"/>
<path fill-rule="evenodd" clip-rule="evenodd" d="M155.829 57.2859C155.829 58.2931 156.04 59.0013 156.464 59.4114C156.887 59.8229 157.453 60.0277 158.162 60.0277C158.872 60.0277 159.438 59.8229 159.862 59.4114C160.284 59.0013 160.496 58.2931 160.496 57.2859V42.2694C160.496 41.2629 160.284 40.5547 159.862 40.1439C159.438 39.7339 158.872 39.5283 158.162 39.5283C157.453 39.5283 156.887 39.7339 156.464 40.1439C156.04 40.5547 155.829 41.2629 155.829 42.2694V57.2859ZM151.326 42.5474C151.326 40.2969 151.913 38.5685 153.086 37.3627C154.26 36.158 155.952 35.5553 158.162 35.5553C160.374 35.5553 162.065 36.158 163.24 37.3627C164.412 38.5685 165 40.2969 165 42.5474V57.0082C165 59.2595 164.412 60.9875 163.24 62.1929C162.065 63.398 160.374 64 158.162 64C155.952 64 154.26 63.398 153.086 62.1929C151.913 60.9875 151.326 59.2595 151.326 57.0082V42.5474Z" fill="white"/>
<path fill-rule="evenodd" clip-rule="evenodd" d="M53.0989 63.7779C50.8931 63.7779 48.8187 62.884 47.2603 61.2626C45.699 59.6428 44.8408 57.4867 44.8408 55.191C44.8408 52.8992 45.699 50.7432 47.2559 49.1244C48.8162 47.5016 50.8905 46.6077 53.0959 46.6077C55.301 46.6077 57.3735 47.4987 58.9308 49.1204C62.1497 52.4697 62.1497 57.9185 58.9308 61.2667C57.3735 62.8869 55.3021 63.7779 53.0989 63.7779Z" fill="#EDC128"/>
<path fill-rule="evenodd" clip-rule="evenodd" d="M8.25804 17.5998C6.05261 17.5998 3.97828 16.7059 2.4184 15.0831C0.859623 13.4632 0 11.3072 0 9.0125C0 6.71968 0.857053 4.56475 2.41436 2.94635C3.97571 1.32206 6.05078 0.428101 8.25694 0.428101C10.4602 0.428101 12.533 1.32059 14.0892 2.94083C15.6506 4.56365 16.5095 6.72078 16.5095 9.01397C16.5095 11.3083 15.6506 13.4643 14.0907 15.0871C12.533 16.7074 10.4613 17.5998 8.25804 17.5998Z" fill="#EDC128"/>
<path fill-rule="evenodd" clip-rule="evenodd" d="M52.7308 17.6008C50.5235 17.6008 48.451 16.7069 46.8922 15.0855C43.6748 11.7377 43.6722 6.29114 46.8871 2.94586C48.4473 1.32305 50.5209 0.427979 52.7282 0.427979C54.9329 0.427979 57.0057 1.32194 58.5645 2.94328C61.7816 6.29004 61.7816 11.7391 58.5645 15.091C57.0068 16.7083 54.934 17.6008 52.7308 17.6008Z" fill="#4C98C0"/>
<path fill-rule="evenodd" clip-rule="evenodd" d="M8.47202 63.7779C6.2666 63.7779 4.19227 62.8839 2.63092 61.2626C1.07214 59.6416 0.214353 57.4867 0.215822 55.192C0.215822 52.8992 1.07618 50.7432 2.63569 49.1218C2.9625 48.7798 3.33044 48.4669 3.79826 48.1385C3.93926 48.0363 4.06962 47.9554 4.20365 47.8701C4.50916 47.6877 4.81394 47.5215 5.09779 47.3858C5.25238 47.3141 5.41138 47.2394 5.57846 47.1732C5.87516 47.0588 6.20638 46.9562 6.5846 46.8632C6.66024 46.8419 6.72707 46.8235 6.79464 46.8033C6.83687 46.7915 6.87799 46.7768 6.92096 46.7658L8.75844 46.6356C8.99162 46.6462 9.24095 46.6771 9.5068 46.7128L9.61182 46.7275C9.67425 46.7356 9.7587 46.7422 9.84316 46.7474L9.9177 46.7529L10.0018 46.7702H10.0745C10.2089 46.7753 10.3433 46.7779 10.4762 46.7779C13.6433 46.7779 16.7701 45.3746 19.0548 42.9299C21.33 40.4959 22.5833 37.2212 22.4933 33.9439L22.4907 33.8469L22.4731 33.7457C22.4562 33.6542 22.4511 33.5611 22.4452 33.4692C22.4375 33.3589 22.4283 33.2497 22.4155 33.1393L22.3949 32.9463C22.3769 32.7812 22.3593 32.6201 22.349 32.4554L22.4896 30.5376C22.4985 30.4898 22.5153 30.4457 22.5278 30.3994L22.5612 30.2809C22.6461 29.9176 22.7364 29.5532 22.8686 29.2009C22.9362 29.0001 23.0012 28.8523 23.0717 28.7008C23.2185 28.3658 23.3706 28.0609 23.5498 27.7484C23.6276 27.6127 23.7033 27.4759 23.7932 27.3427C24.1263 26.8371 24.4296 26.4503 24.7443 26.123C26.303 24.5016 28.3755 23.6091 30.5843 23.6091C32.7886 23.6091 34.864 24.5002 36.4239 26.1204C39.6388 29.4682 39.6362 34.9166 36.4166 38.2652C36.0912 38.6046 35.7218 38.9161 35.2529 39.2496C35.1156 39.3467 34.9856 39.428 34.8549 39.5078C34.5585 39.6924 34.2592 39.856 33.9614 39.9987C33.8002 40.0745 33.639 40.1513 33.483 40.2116C33.1672 40.3337 32.8323 40.4374 32.4805 40.5198L32.2826 40.5772C32.2374 40.5904 32.1941 40.6051 32.1493 40.6172L30.2942 40.754C30.0764 40.7448 29.8488 40.7143 29.6071 40.682L29.4423 40.661C29.3872 40.6514 29.3002 40.6448 29.2135 40.6397L29.1481 40.633L29.0534 40.6143H28.9792C28.8437 40.6091 28.7108 40.6077 28.5764 40.6077C25.4089 40.6077 22.2836 42.0095 20 44.4542C17.7237 46.8897 16.4708 50.1669 16.5604 53.4442L16.563 53.5416L16.5806 53.6387C16.5975 53.7321 16.6012 53.8237 16.6089 53.9167C16.6162 54.027 16.6258 54.1359 16.6383 54.2451C16.6423 54.3106 16.6548 54.4286 16.6691 54.5448C16.6827 54.6761 16.6996 54.8041 16.6996 54.9354V54.9821L16.5663 56.82C16.5582 56.859 16.4987 57.0704 16.4822 57.1366C16.3926 57.5334 16.292 57.8846 16.1793 58.1994C16.1176 58.3755 16.0551 58.527 15.9824 58.6848C15.8389 59.011 15.6832 59.3235 15.5065 59.6416C15.4283 59.7714 15.3365 59.9244 15.2433 60.0711C14.9363 60.5341 14.6319 60.9235 14.3058 61.2641C12.7507 62.8839 10.6782 63.7779 8.47312 63.7779H8.47202Z" fill="#EDC128"/>
<path fill-rule="evenodd" clip-rule="evenodd" d="M30.7634 63.7779C28.5562 63.7779 26.4818 62.8839 24.9219 61.2611C23.3632 59.6402 22.5054 57.4856 22.5039 55.1909C22.5028 52.8992 23.3606 50.7443 24.9183 49.127C25.2366 48.7945 25.5972 48.4886 26.0911 48.1334C26.2134 48.0473 26.3452 47.9631 26.4833 47.8807C26.7862 47.6917 27.0778 47.5321 27.3811 47.3872C27.5419 47.3115 27.6995 47.2357 27.8596 47.1732C28.1662 47.0559 28.4996 46.9537 28.854 46.8724C28.854 46.8724 29.1444 46.7849 29.1815 46.7753L31.048 46.633C31.2683 46.6437 31.5059 46.6771 31.7545 46.7099L31.8926 46.729C31.9844 46.7382 32.0611 46.7463 32.1382 46.7474C32.1687 46.7499 32.1992 46.7499 32.2289 46.7529L32.2873 46.761L32.3655 46.7691C32.5021 46.7727 32.6406 46.7768 32.7772 46.7768C35.9384 46.7753 39.0596 45.3746 41.3396 42.9325C43.6148 40.4999 44.8677 37.2212 44.7781 33.9439L44.7667 33.5439L44.7326 33.4997C44.7307 33.4861 44.7307 33.4703 44.7296 33.4556C44.7245 33.3626 44.7193 33.2684 44.7102 33.1739L44.6797 32.8985C44.6632 32.747 44.6437 32.598 44.6386 32.4462L44.7667 30.588C44.777 30.5428 44.8409 30.3129 44.8559 30.2438C44.961 29.7996 45.0531 29.4745 45.1582 29.1862C45.2165 29.0134 45.2885 28.8549 45.3612 28.689C45.493 28.3893 45.6476 28.0848 45.8371 27.7498L45.8727 27.6884C45.9366 27.5755 45.9976 27.4637 46.0732 27.3549C46.4111 26.8426 46.7114 26.4569 47.0283 26.127C48.5889 24.5042 50.664 23.6106 52.8702 23.6106C55.0745 23.6106 57.1462 24.5027 58.705 26.123C61.9217 29.4697 61.9217 34.9203 58.705 38.2707C58.3929 38.594 58.0206 38.9065 57.5358 39.2548C57.4426 39.3217 57.353 39.3772 57.2637 39.4331L57.1191 39.5262C56.8429 39.6968 56.5422 39.8604 56.2495 39.9998C56.0847 40.077 55.929 40.1513 55.7648 40.2153C55.4758 40.3286 55.1578 40.4242 54.7561 40.5242C54.6757 40.5437 54.6103 40.565 54.5464 40.5852C54.5016 40.597 54.4594 40.6117 54.4157 40.6224L52.5812 40.754C52.3127 40.7423 52.0223 40.7011 51.741 40.6625C51.6452 40.6503 51.5706 40.6466 51.4976 40.6422C51.47 40.6411 51.4417 40.6411 51.4135 40.6367L51.2574 40.6198C51.1204 40.6143 50.9853 40.6117 50.8498 40.6117C47.686 40.6117 44.5644 42.0135 42.2819 44.4556C40.0085 46.8908 38.7567 50.1669 38.8489 53.4471L38.8511 53.5431L38.8694 53.6376C38.8871 53.7343 38.8907 53.8344 38.8973 53.9314C38.9036 54.0322 38.9113 54.1311 38.9216 54.2278C38.9278 54.3091 38.9396 54.4128 38.9495 54.5139C38.9664 54.6588 38.9829 54.8052 38.9869 54.9501L38.8511 56.8347C38.8412 56.8755 38.7707 57.13 38.7707 57.13C38.6822 57.5294 38.5837 57.8787 38.4677 58.2075C38.4126 58.3615 38.3473 58.5108 38.2808 58.6668L38.258 58.7208C38.1214 59.0282 37.9676 59.3313 37.7961 59.628C37.712 59.7744 37.6286 59.9182 37.5405 60.0539C37.217 60.5415 36.9126 60.9305 36.5865 61.2722C35.0355 62.8869 32.9666 63.7779 30.7634 63.7779Z" fill="#4C98C0"/>
<path fill-rule="evenodd" clip-rule="evenodd" d="M8.47581 40.5958C6.27002 40.5958 4.19679 39.7033 2.63801 38.083C1.0785 36.4591 0.218876 34.3031 0.217774 32.0088C0.216673 29.7171 1.07299 27.5636 2.63177 25.9434C2.9516 25.611 3.32358 25.2969 3.80205 24.9538C3.92726 24.8663 4.0679 24.7769 4.20854 24.689C4.49386 24.5136 4.78542 24.3526 5.09607 24.2036C5.2558 24.1279 5.41444 24.0536 5.58298 23.9885C5.88629 23.8723 6.22118 23.7704 6.57039 23.6888L6.78007 23.6278C6.81862 23.616 6.85571 23.6028 6.89427 23.5932L8.76223 23.4534C9.00495 23.4641 9.2675 23.5002 9.54217 23.5388L9.59982 23.5469C9.69566 23.5572 9.76984 23.5616 9.84511 23.5652C9.87192 23.5663 9.89872 23.5663 9.9259 23.5704L10.0059 23.5851L10.0816 23.588C10.22 23.5921 10.3566 23.5947 10.4936 23.5947C13.6534 23.5947 16.775 22.194 19.0557 19.7504C21.3298 17.3152 22.5816 14.038 22.4905 10.7592L22.4883 10.6647L22.4703 10.5717C22.4512 10.4676 22.4486 10.3628 22.442 10.2565C22.4373 10.1701 22.4317 10.0833 22.4229 9.99325L22.3947 9.72848C22.3756 9.57146 22.3561 9.4115 22.3528 9.25227L22.4765 7.44853L22.4883 7.40734V7.3713C22.4986 7.33012 22.5661 7.09072 22.5661 7.09072C22.6712 6.62921 22.7644 6.29568 22.8694 6.00112C22.9278 5.83895 23.0013 5.67678 23.0747 5.50909C23.2091 5.20093 23.3666 4.88799 23.5484 4.57027L23.5767 4.52099C23.6479 4.39706 23.7184 4.2735 23.7988 4.14995C24.126 3.65645 24.4268 3.27069 24.7411 2.94488C26.3013 1.32243 28.3753 0.428101 30.5826 0.428101C32.788 0.428101 34.8612 1.32096 36.4215 2.94194C39.6385 6.28979 39.6356 11.7393 36.4174 15.086C36.099 15.4184 35.7194 15.7391 35.2548 16.0664C35.1285 16.1594 35.0195 16.226 34.9067 16.2951L34.8458 16.3323C34.5428 16.5198 34.2447 16.6835 33.9634 16.8177C33.7971 16.8978 33.641 16.9707 33.4827 17.0317C33.1732 17.1516 32.8445 17.2527 32.4737 17.3417C32.3958 17.3616 32.3253 17.3829 32.2552 17.4031C32.2129 17.4149 32.1696 17.4292 32.1259 17.4402L30.2961 17.5734C30.0648 17.5612 29.8166 17.5292 29.5566 17.4947L29.4446 17.4803C29.3601 17.4693 29.2819 17.4656 29.2066 17.4601C29.1762 17.459 29.1453 17.459 29.1148 17.4535L29.0532 17.4454L28.9727 17.4391C28.8361 17.4336 28.7003 17.4307 28.5637 17.4307C25.4028 17.4307 22.2808 18.8314 19.9998 21.2724C17.7246 23.7076 16.4717 26.9863 16.5613 30.2665L16.5638 30.3621L16.58 30.4566C16.5998 30.5522 16.6035 30.6519 16.6097 30.7493C16.616 30.8501 16.6237 30.9486 16.634 31.0498C16.6417 31.1295 16.6531 31.2318 16.6648 31.3333C16.6802 31.4767 16.6982 31.6175 16.7004 31.7602L16.5686 33.6316C16.5591 33.6791 16.5433 33.7283 16.5293 33.7791L16.483 33.9468C16.3912 34.3656 16.2943 34.7142 16.1838 35.0239C16.1254 35.1864 16.0494 35.3537 15.9741 35.5255C15.8386 35.834 15.6851 36.1388 15.5063 36.4499C15.4207 36.5989 15.341 36.7386 15.2555 36.8703C14.9169 37.381 14.625 37.7558 14.3066 38.0845C12.7479 39.7048 10.6779 40.5958 8.47581 40.5958Z" fill="#4C98C0"/>
</svg>

<svg width="165" height="64" fill="none" xmlns="http://www.w3.org/2000/svg"><path fill-rule="evenodd" clip-rule="evenodd" d="M85.62 20.305v4.215c0 2.566-.623 4.529-1.865 5.89-1.243 1.361-3.078 2.042-5.503 2.042-2.426 0-4.261-.687-5.504-2.062-1.243-1.375-1.864-3.347-1.864-5.915V7.977c0-2.568.621-4.54 1.864-5.915C73.991.688 75.826 0 78.252 0c2.425 0 4.26.688 5.503 2.062 1.242 1.376 1.864 3.347 1.864 5.915v3.082h-4.672v-3.4c0-1.148-.232-1.956-.697-2.424-.464-.468-1.085-.702-1.864-.702-.779 0-1.4.234-1.864.703-.465.47-.696 1.28-.696 2.43V24.83c0 1.15.231 1.953.696 2.407.464.454 1.085.681 1.864.681.779 0 1.4-.227 1.864-.68.465-.453.697-1.253.697-2.402v-4.532h4.672zm13.79 2.583L102.78.363h6.873v31.726h-4.672V9.337l-3.414 22.752h-4.673L93.211 9.654v22.435h-4.314V.363h6.874l3.64 22.525zm19.271-.861h4.763l-2.382-16.044-2.381 16.044zm11.277 10.062h-4.987l-.853-5.756h-6.066l-.853 5.756h-4.538L117.693.363h7.233l5.032 31.726zm7.952-27.194v10.741h2.336c.778 0 1.377-.21 1.796-.634.419-.423.63-1.208.63-2.357V7.887c0-1.149-.211-1.934-.63-2.357-.419-.423-1.018-.635-1.796-.635h-2.336zm2.336-4.532c2.485 0 4.335.665 5.548 1.994 1.213 1.33 1.82 3.278 1.82 5.847v4.124c0 2.569-.607 4.517-1.82 5.847s-3.063 1.994-5.548 1.994h-2.336v11.92h-4.942V.363h7.278zm9.48 0H165v4.532h-5.166v27.194h-4.942V4.895h-5.166V.363zM79.808 42.27c0-1.007-.211-1.715-.634-2.126-.424-.41-.99-.616-1.699-.616-.71 0-1.276.206-1.699.616-.424.41-.635 1.119-.635 2.125v2.98h-4.257v-2.702c0-2.25.566-3.978 1.699-5.184 1.132-1.205 2.804-1.808 5.015-1.808 2.21 0 3.882.603 5.015 1.808 1.132 1.206 1.699 2.934 1.699 5.184v14.461c0 2.252-.567 3.98-1.699 5.185C81.48 63.398 79.808 64 77.598 64c-2.21 0-3.883-.596-5.015-1.79-1.133-1.193-1.7-2.913-1.7-5.162v-3.695h4.258v3.973c0 1.007.211 1.708.635 2.105.423.398.99.597 1.7.597.709 0 1.274-.2 1.698-.599.423-.399.634-1.104.634-2.116v-5.748h-3.725v-3.972h3.725v-5.324zm12.118 21.412h-4.504v-27.81h4.504v11.92h5.117v-11.92h4.585v27.81h-4.585V51.764h-5.117v11.918zm18.627-16.089h6.181v3.972h-6.181v8.144h7.778v3.973h-12.282v-27.81h12.282v3.974h-7.778v7.747zm15.474-7.747v9.415h2.129c.709 0 1.255-.185 1.638-.556.381-.37.572-1.06.572-2.066v-4.171c0-1.007-.191-1.695-.572-2.066-.383-.37-.929-.556-1.638-.556h-2.129zm2.129-3.973c2.265 0 3.95.583 5.056 1.748 1.105 1.166 1.658 2.874 1.658 5.125v3.615c0 2.252-.553 3.96-1.658 5.125-1.106 1.166-2.791 1.748-5.056 1.748h-2.129v10.448h-4.504v-27.81h6.633zm13.714 27.809h-4.504v-27.81h11.914v3.974h-7.41v23.836zm13.959-6.396c0 1.007.211 1.715.635 2.125.423.412.989.617 1.698.617.71 0 1.276-.205 1.7-.617.422-.41.634-1.118.634-2.125V42.269c0-1.006-.212-1.714-.634-2.125-.424-.41-.99-.616-1.7-.616-.709 0-1.275.206-1.698.616-.424.41-.635 1.119-.635 2.125v15.017zm-4.503-14.739c0-2.25.587-3.978 1.76-5.184 1.174-1.205 2.866-1.808 5.076-1.808 2.212 0 3.903.603 5.078 1.808 1.172 1.206 1.76 2.934 1.76 5.184v14.461c0 2.252-.588 3.98-1.76 5.185-1.175 1.205-2.866 1.807-5.078 1.807-2.21 0-3.902-.602-5.076-1.807-1.173-1.206-1.76-2.933-1.76-5.185v-14.46z" fill="#fff"/><path fill-rule="evenodd" clip-rule="evenodd" d="M53.099 63.778c-2.206 0-4.28-.894-5.839-2.515-1.561-1.62-2.42-3.776-2.42-6.072 0-2.292.859-4.448 2.416-6.067 1.56-1.622 3.635-2.516 5.84-2.516s4.278.89 5.835 2.512c3.219 3.35 3.219 8.799 0 12.147-1.557 1.62-3.629 2.51-5.832 2.51zM8.258 17.6c-2.205 0-4.28-.894-5.84-2.517C.86 13.463 0 11.307 0 9.013 0 6.72.857 4.564 2.414 2.945 3.976 1.322 6.051.428 8.257.428c2.203 0 4.276.893 5.832 2.513 1.562 1.623 2.42 3.78 2.42 6.073 0 2.294-.858 4.45-2.418 6.073-1.558 1.62-3.63 2.513-5.833 2.513z" fill="#EDC128"/><path fill-rule="evenodd" clip-rule="evenodd" d="M52.73 17.6c-2.206 0-4.279-.893-5.838-2.515-3.217-3.347-3.22-8.794-.005-12.14 1.56-1.622 3.634-2.517 5.841-2.517 2.205 0 4.278.894 5.837 2.515 3.217 3.347 3.217 8.796 0 12.148-1.558 1.617-3.631 2.51-5.834 2.51z" fill="#4C98C0"/><path fill-rule="evenodd" clip-rule="evenodd" d="M8.472 63.778c-2.205 0-4.28-.894-5.841-2.515C1.072 59.642.214 57.487.216 55.192c0-2.293.86-4.449 2.42-6.07a7.62 7.62 0 011.162-.983c.141-.103.272-.184.406-.269.305-.182.61-.348.894-.484.154-.072.313-.147.48-.213a8.298 8.298 0 011.007-.31l.21-.06c.042-.011.083-.026.126-.037l1.837-.13c.234.01.483.041.749.077l.105.014c.062.009.147.015.231.02l.075.006.084.017h.072c.135.005.27.008.402.008 3.167 0 6.294-1.403 8.579-3.848 2.275-2.434 3.528-5.709 3.438-8.986l-.002-.097-.018-.101c-.017-.092-.022-.185-.028-.277a7.214 7.214 0 00-.03-.33l-.02-.193c-.018-.165-.036-.326-.046-.49l.14-1.918c.01-.048.026-.092.039-.139l.033-.118c.085-.363.175-.728.308-1.08.067-.2.132-.349.203-.5a9.7 9.7 0 01.478-.953c.078-.135.153-.272.243-.405.333-.506.637-.893.951-1.22 1.559-1.621 3.631-2.514 5.84-2.514 2.205 0 4.28.891 5.84 2.511 3.215 3.348 3.212 8.797-.007 12.145a7.965 7.965 0 01-1.562 1.243 9.27 9.27 0 01-.894.49 7.05 7.05 0 01-.478.214 7.66 7.66 0 01-1.002.308l-.198.057c-.046.013-.089.028-.134.04l-1.855.137a8.205 8.205 0 01-.687-.072l-.165-.021a2.352 2.352 0 00-.229-.021l-.065-.007-.095-.019h-.074a10.442 10.442 0 00-.403-.006c-3.167 0-6.292 1.402-8.576 3.846-2.276 2.436-3.53 5.713-3.44 8.99l.003.098.018.097c.017.093.02.185.028.278.007.11.017.219.03.328.003.066.016.184.03.3.014.131.03.26.03.39v.047l-.133 1.838c-.008.039-.067.25-.084.317-.09.396-.19.748-.303 1.062a5.359 5.359 0 01-.197.486c-.143.326-.299.639-.475.957-.079.13-.17.282-.264.43a8.468 8.468 0 01-.937 1.192c-1.555 1.62-3.628 2.514-5.833 2.514h-.001z" fill="#EDC128"/><path fill-rule="evenodd" clip-rule="evenodd" d="M30.763 63.778c-2.207 0-4.281-.894-5.841-2.517-1.559-1.62-2.417-3.775-2.418-6.07-.001-2.292.857-4.447 2.414-6.064a8.163 8.163 0 011.173-.994c.122-.086.254-.17.392-.252.303-.19.595-.349.898-.494.16-.075.319-.151.479-.214.306-.117.64-.22.994-.3 0 0 .29-.088.328-.098l1.866-.142c.22.01.458.044.707.077l.138.019c.091.01.168.017.245.018.03.003.061.003.09.006l.06.008.078.008c.136.004.275.008.411.008 3.161-.002 6.283-1.402 8.563-3.845 2.275-2.432 3.528-5.71 3.438-8.988l-.011-.4-.034-.044c-.002-.014-.002-.03-.003-.044a6.837 6.837 0 00-.02-.282l-.03-.276c-.017-.151-.036-.3-.041-.452l.128-1.858c.01-.045.074-.275.089-.344.105-.444.197-.77.302-1.058.059-.173.13-.331.203-.497.132-.3.287-.604.476-.94l.036-.06c.064-.113.125-.225.2-.334.338-.512.638-.898.955-1.228 1.56-1.623 3.636-2.516 5.842-2.516 2.205 0 4.276.892 5.835 2.512 3.217 3.347 3.217 8.797 0 12.148a8.427 8.427 0 01-1.17.984c-.092.067-.182.122-.271.178l-.145.093c-.276.17-.577.334-.87.474-.164.077-.32.151-.484.215a8.079 8.079 0 01-1.009.31c-.08.019-.146.04-.21.06-.044.012-.087.027-.13.037l-1.835.132c-.268-.012-.559-.053-.84-.091-.096-.013-.17-.016-.243-.02-.028-.002-.056-.002-.084-.006l-.157-.017a10.13 10.13 0 00-.407-.008c-3.164 0-6.286 1.401-8.568 3.844-2.273 2.435-3.525 5.71-3.433 8.991l.002.096.018.095c.018.096.022.196.028.293.007.101.014.2.025.297.006.081.018.185.028.286.016.145.033.291.037.436l-.136 1.885-.08.295a9.24 9.24 0 01-.303 1.078c-.055.154-.12.303-.187.459l-.023.054c-.137.307-.29.61-.462.907a9.59 9.59 0 01-.255.426 8.667 8.667 0 01-.954 1.218c-1.552 1.615-3.62 2.506-5.824 2.506zM8.476 40.596c-2.206 0-4.28-.893-5.838-2.513-1.56-1.624-2.42-3.78-2.42-6.074-.001-2.292.855-4.445 2.414-6.066a8.291 8.291 0 011.577-1.254 9.665 9.665 0 011.374-.7c.303-.117.638-.219.987-.3l.21-.061c.039-.012.076-.025.114-.035l1.868-.14c.243.011.505.047.78.086l.058.008c.096.01.17.015.245.018.027.001.054.001.08.005l.08.015.077.003c.138.004.275.007.412.007 3.16 0 6.281-1.401 8.562-3.845 2.274-2.435 3.526-5.712 3.434-8.99l-.002-.095-.018-.093c-.019-.104-.021-.21-.028-.315a6.07 6.07 0 00-.02-.264l-.027-.265a4.429 4.429 0 01-.042-.476l.123-1.803.012-.042v-.036c.01-.04.078-.28.078-.28.105-.462.198-.795.303-1.09.059-.162.132-.324.206-.492a9.7 9.7 0 01.473-.939l.029-.049a8.288 8.288 0 011.164-1.576c1.56-1.623 3.634-2.517 5.842-2.517 2.205 0 4.278.893 5.839 2.514 3.217 3.348 3.214 8.797-.005 12.144a7.85 7.85 0 01-1.162.98c-.127.093-.236.16-.348.23l-.061.036a9.325 9.325 0 01-1.363.7c-.31.12-.639.22-1.01.31-.077.02-.148.04-.218.061-.042.012-.085.026-.13.037l-1.829.133a9.627 9.627 0 01-.74-.078l-.111-.015c-.085-.01-.163-.014-.238-.02-.03-.001-.062-.001-.092-.007l-.062-.008-.08-.006a10.146 10.146 0 00-.41-.008c-3.16 0-6.282 1.4-8.563 3.841-2.275 2.436-3.528 5.714-3.439 8.995l.003.095.016.095c.02.095.024.195.03.292.006.101.014.2.024.3l.03.284c.016.144.034.285.036.427l-.131 1.872c-.01.047-.026.096-.04.147l-.046.168a8.791 8.791 0 01-.3 1.077c-.058.162-.134.33-.209.502a9.556 9.556 0 01-.468.924 8.203 8.203 0 01-1.2 1.635c-1.558 1.62-3.628 2.51-5.83 2.51z" fill="#4C98C0"/></svg>
